X:48a
T:Old Ebeneezer Scrooge
C:Bill Monroe
S:Jim Coon to CoMandoList TOW
M:4/4
L:1/8
Q:1/8=478
K:A
|:"A"E2AA =cBA=G|"G"=G2Bd BAAA|"A"A,2AA =cBA=G|"E"E=GGB "A"A2A2|!
"A"E2AA =cBA=G|"G"=G2Bd BAAA|"A"A,2AA =cBA=G|1 E"E"=GGB \
"A"A2A2:|2 E"E"=GG"A"B A2ee|!
|:"A"e2ee =geee|"D"eaaa aaa=c'|"A"e2ee =gfeA|"E"=cABd A=GE2|!
"A"eeee =geee|"D"eaaa aaa=c'|"A"e2=cB A=GGE|1 E"E"=GGB "A"A2ee:|2 E"E"=G
G"A"B A3=C|!
"A"[A2E2][A2E2] [A2E2][A2E2]|"G"=G,2B,D =GDDD|"A"[AE][AE][AE][AE] [AE][A
E]AA|A"E"=cce ecA2|!
"A"[AE][AE][AE][AE] [AE][AE][AE][AE]|"G"=G,2B,D =GDFD|"A"EEEA =cAc[AD]:|
E"E"=GGB "A"A2[A2D2]|!
|:"A"A,=CE=G "G"FAFG|"E"EEEA "A"=cAc[AD]|"A"A,=CE=G "G"FAFG|"E"E=GGB "A"
A2[A2D2]|!
"A"A,=CE=G "G"FAFG|"E"EEEA "A"=cAc[AD]|"A"A,=CE=G "G"FAFG|"E"E=GGB "A"A2
A2:|!
e"A"eae =gefe|=cAcA BAA=G|E=CA,C E=GFA|F=GEE AA[e2A2]||!
W:Created with TablEdit http://www.tabledit.com/
